assets/images/logo-namadomain.svg

<svg fill="none" height="40" viewBox="0 0 94 40" width="94" xmlns="http://www.w3.org/2000/svg"><g fill="#fff"><path d="m2.78936 6.45549 8.74424 8.34721 1.288 1.0935h.7765v-15.028359h-2.4407v10.102459l-11.1574-10.320031v15.245931h2.78936z"/><path d="m24.6191.179993-8.484 15.716307h3.1626l5.3057-9.90853 5.3418 9.90853h3.1131l-7.0571-13.15551z"/><path d="m43.1759 11.2692-7.6115-11.1911548v15.8182548h2.7893v-6.56198l4.8586 7.04918 4.9042-7.1373v6.6501h2.6277l-.0509-15.8963z"/><path d="m62.4265 5.88241 5.3412 9.90849h3.1136l-7.0576-13.08119-1.3812-2.70971-8.4842 15.7909h3.1621z"/><path d="m12.2318 21.6912c-.9959-.9157-2.25185-1.5271-3.73719-1.8185-.6011-.1094-1.37149-.1654-2.28936-.1654l-5.970791-.0099-.01046 14.7629 5.934531-.001c.1426.008.288.0123.43601.0123.56101 0 1.16595-.0601 1.80175-.1785 1.54757-.2954 2.83731-.9069 3.83271-1.8162 1.427-1.2965 2.1499-3.1117 2.1499-5.3936.0004-2.2809-.7224-4.0952-2.1471-5.3921zm-1.8453 8.9113c-.98639.9022-2.41594 1.3467-4.13523 1.3467h-3.46211v-9.3927h3.43335l.05439.0289c.62151-.0523 1.205-.0521 1.55367-.0228.98639.0837 1.84621.4618 2.55503 1.1069.8496.7807 1.2803 1.9366 1.2803 3.4609 0 1.5112-.4422 2.7039-1.2794 3.4721z"/><path d="m43.1415 29.6283-7.5771-11.1619v15.8738h2.7893v-6.5893l4.5969 7.0338 4.6429-7.1223v6.6778h3.0857l-.0729-15.9298z"/><path d="m62.2712 18.7333-1.4701 2.5851-7.0153 13.0217h3.1639l5.3057-9.9085 5.3411 9.9085h3.1153l-7.0611-13.1112z"/><path d="m76.1843 19.4825h-2.7893v14.8576h2.7893z"/><path d="m90.4797 19.4826v9.8777l-10.9831-10.3194v15.2992h2.4407v-9.5052l8.8735 8.4025 1.3947 1.1027h1.0636v-14.8575z"/><path d="m24.4957 19.1821c-4.3535 0-7.8824 3.4571-7.8824 7.7212 0 4.2651 3.5289 7.7217 7.8824 7.7217 4.3532 0 7.8824-3.4566 7.8824-7.7217 0-4.2641-3.5292-7.7212-7.8824-7.7212zm0 12.7234c-2.82 0-5.1061-2.239-5.1061-5.0022 0-2.7625 2.2861-5.0019 5.1061-5.0019 2.8201 0 5.1063 2.2394 5.1063 5.0019 0 2.763-2.2862 5.0022-5.1063 5.0022z"/><path d="m24.4985 32.3688-.0027-5.4655-4.0047 3.6075-1.4158 1.2747-3.7628 3.3899 3.7867.2358-1.5428 3.446 2.6603 1.1428 1.5434-3.4458 2.7421 2.5697-.0026-4.8724zm-3.0794 2.5123-1.7151 3.8306-.8318-.3575 1.7151-3.8307-2.8772-.1789 2.072-1.8668 1.4229-1.2814 2.2939-2.0667.0012 3.1368.0009 1.9109.0017 2.6561z"/><path d="m23.5 32.2667-.0013-3.1368-2.2939 2.0666-1.4229 1.2813-2.0719 1.8668 2.8772.1789-1.7151 3.8307.8319.3573 1.7151-3.8304 2.0835 1.9525-.0018-2.6561z"/></g></svg>

<svg width="94" height="40" viewBox="0 0 94 40" fill="none" xmlns="http://www.w3.org/2000/svg">
<path d="M2.78936 6.45549L11.5336 14.8027L12.8216 15.8962H13.5981V0.867841H11.1574V10.9703L0 0.650269V15.8962H2.78936V6.45549Z" fill="white"/>
<path d="M24.6191 0.179993L16.1351 15.8963H19.2977L24.6034 5.98777L29.9452 15.8963H33.0583L26.0012 2.74079L24.6191 0.179993Z" fill="white"/>
<path d="M43.1759 11.2692L35.5644 0.0780452V15.8963H38.3537V9.33432L43.2123 16.3835L48.1165 9.2462V15.8963H50.7442L50.6933 0L43.1759 11.2692Z" fill="white"/>
<path d="M62.4265 5.88241L67.7677 15.7909H70.8813L63.8237 2.70971L62.4425 0L53.9583 15.7909H57.1204L62.4265 5.88241Z" fill="white"/>
<path d="M12.2318 21.6912C11.2359 20.7755 9.97995 20.1641 8.49461 19.8727C7.89351 19.7633 7.12312 19.7073 6.20525 19.7073L0.234459 19.6974L0.223999 34.4603L6.15853 34.4593C6.30113 34.4673 6.44653 34.4716 6.59454 34.4716C7.15555 34.4716 7.76049 34.4115 8.39629 34.2931C9.94386 33.9977 11.2336 33.3862 12.229 32.4769C13.656 31.1804 14.3789 29.3652 14.3789 27.0833C14.3793 24.8024 13.6565 22.9881 12.2318 21.6912ZM10.3865 30.6025C9.40011 31.5047 7.97056 31.9492 6.25127 31.9492H2.78916V22.5565H6.22251L6.2769 22.5854C6.89841 22.5331 7.4819 22.5333 7.83057 22.5626C8.81696 22.6463 9.67678 23.0244 10.3856 23.6695C11.2352 24.4502 11.6659 25.6061 11.6659 27.1304C11.6659 28.6416 11.2237 29.8343 10.3865 30.6025Z" fill="white"/>
<path d="M43.1415 29.6283L35.5644 18.4664V34.3402H38.3537V27.7509L42.9506 34.7847L47.5935 27.6624V34.3402H50.6792L50.6063 18.4104L43.1415 29.6283Z" fill="white"/>
<path d="M62.2712 18.7333L60.8011 21.3184L53.7858 34.3401H56.9497L62.2554 24.4316L67.5965 34.3401H70.7118L63.6507 21.2289L62.2712 18.7333Z" fill="white"/>
<path d="M76.1843 19.4825H73.395V34.3401H76.1843V19.4825Z" fill="white"/>
<path d="M90.4797 19.4826V29.3603L79.4966 19.0409V34.3401H81.9373V24.8349L90.8108 33.2374L92.2055 34.3401H93.2691V19.4826H90.4797Z" fill="white"/>
<path d="M24.4957 19.1821C20.1422 19.1821 16.6133 22.6392 16.6133 26.9033C16.6133 31.1684 20.1422 34.625 24.4957 34.625C28.8489 34.625 32.3781 31.1684 32.3781 26.9033C32.3781 22.6392 28.8489 19.1821 24.4957 19.1821ZM24.4957 31.9055C21.6757 31.9055 19.3896 29.6665 19.3896 26.9033C19.3896 24.1408 21.6757 21.9014 24.4957 21.9014C27.3158 21.9014 29.602 24.1408 29.602 26.9033C29.602 29.6663 27.3158 31.9055 24.4957 31.9055Z" fill="white"/>
<path d="M24.4985 32.3688L24.4958 26.9033L20.4911 30.5108L19.0753 31.7855L15.3125 35.1754L19.0992 35.4112L17.5564 38.8572L20.2167 40L21.7601 36.5542L24.5022 39.1239L24.4996 34.2515L24.4985 32.3688ZM21.4191 34.8811L19.704 38.7117L18.8722 38.3542L20.5873 34.5235L17.7101 34.3446L19.7821 32.4778L21.205 31.1964L23.4989 29.1297L23.5001 32.2665L23.501 34.1774L23.5027 36.8335L21.4191 34.8811Z" fill="white"/>
<path d="M23.5 32.2667L23.4987 29.1299L21.2048 31.1965L19.7819 32.4778L17.71 34.3446L20.5872 34.5235L18.8721 38.3542L19.704 38.7115L21.4191 34.8811L23.5026 36.8336L23.5008 34.1775L23.5 32.2667Z" fill="white"/>
</svg>
